X: 20611
Q: "Allegro"
M: 6/8
L: 1/8
K: G
d/ c/ | B> A G c> d e |
d b a g2 d | e c g d c B |
{B}A3 z2 A | B e f g e d |
d ^c d {f}e2 e | f a d {f/}e d ^c |
d2x x3 & d/^c/d/e/f/g/ a2g | fed AB^c | ddd d2z |
d g f e d c | c B c {e}d2 ^d |
e ^d e {B}A G F | E2 z z2 (d/c/) |
e a g {g/}f e d | g2z z2g | c'/b/a/g/f/e/ dec |




